X:12
T:From the Three Camps
S:American Veteran Fifer #12
M:6/8
L:1/8
Q:1/8=300
K:D 
%%MIDI program 72
%%MIDI transpose 8
%%MIDI ratio 3 1
|: c/d/ | e2 A AGA | c2 d e2 f | g2 e f2 d | e2 d cBA |
e2 A AGA | c2 d e2 f | gfe dcB | A3 A2 :|
|: f | g3 f3 | e2 d ABc | d2 c def | g2 f e2 A |
g3 f3 | e2 d cBA | c2 e d2 B | A3 A2 :|



